teeny/outline/d3.svg

<svg width="15" height="15" viewBox="0 0 15 15" fill="none" xmlns="http://www.w3.org/2000/svg">
<path d="M0 1.5H1.5C4.81371 1.5 7.5 4.18629 7.5 7.5C7.5 10.8137 4.81371 13.5 1.5 13.5H0M7 1.5H11.5C13.1569 1.5 14.5 2.84315 14.5 4.5C14.5 6.15685 13.1569 7.5 11.5 7.5M11.5 7.5H9M11.5 7.5H9.5M11.5 7.5C13.1569 7.5 14.5 8.84315 14.5 10.5C14.5 12.1569 13.1569 13.5 11.5 13.5H7" stroke="black"/>
</svg>

<svg viewBox="0 0 15 15" xmlns="http://www.w3.org/2000/svg"><path fill="none" stroke="#000" d="M0 1.5h1.5c3.31 0 6 2.68 6 6 0 3.31-2.69 6-6 6H0m7-12h4.5c1.65 0 3 1.34 3 3 0 1.65-1.35 3-3 3m0 0H9m2.5 0h-2m2 0c1.65 0 3 1.34 3 3 0 1.65-1.35 3-3 3H7"/></svg>
